public/transport-stops-generator/img/bus.svg

<svg xmlns="http://www.w3.org/2000/svg" viewBox="0 0 97.9 142.9"><path d="M21.9 34.4h53.9c5 0 9 4 9 9 0 23.9.1 49.1.1 71.9H72.7v-6H25.2v6H13c0-22.8-.1-47.9-.1-71.9 0-5 4-9 9-9zm67.4 26.9h8.6v21h-8.6v-21zM0 61.3h8.6v21H0v-21zm24.8 30c3.3 0 6 2.7 6 6s-2.7 6-6 6-6-2.7-6-6c.1-3.3 2.7-6 6-6zm-2.9-48.5h53.9v10H21.9v-10zm0 18.5h53.9v24H21.9v-24zm50.9 30c3.3 0 6 2.7 6 6s-2.7 6-6 6-6-2.7-6-6 2.7-6 6-6z" fill-rule="evenodd" clip-rule="evenodd" fill="#26a63f"/><path fill="none" d="M0 0h97.9v142.9H0z"/></svg>

<?xml version="1.0" encoding="utf-8"?>
<!-- Generator: Adobe Illustrator 24.3.0, SVG Export Plug-In . SVG Version: 6.00 Build 0)  -->
<svg version="1.1" id="Layer_1" xmlns="http://www.w3.org/2000/svg" xmlns:xlink="http://www.w3.org/1999/xlink" x="0px" y="0px"
	 viewBox="0 0 97.9 142.9" style="enable-background:new 0 0 97.9 142.9;" xml:space="preserve">
<style type="text/css">
	.st0{fill-rule:evenodd;clip-rule:evenodd;fill:#26A63F;}
	.st1{fill:none;}
</style>
<path class="st0" d="M21.9,34.4h53.9c5,0,9,4,9,9c0,23.9,0.1,49.1,0.1,71.9H72.7v-6H25.2v6H13c0-22.8-0.1-47.9-0.1-71.9
	C12.9,38.4,16.9,34.4,21.9,34.4L21.9,34.4z M89.3,61.3h8.6v21h-8.6V61.3z M0,61.3h8.6v21H0V61.3z M24.8,91.3c3.3,0,6,2.7,6,6
	s-2.7,6-6,6s-6-2.7-6-6l0,0C18.9,94,21.5,91.3,24.8,91.3z M21.9,42.8h53.9v10H21.9V42.8z M21.9,61.3h53.9v24H21.9V61.3z M72.8,91.3
	c3.3,0,6,2.7,6,6s-2.7,6-6,6s-6-2.7-6-6l0,0C66.8,94,69.5,91.3,72.8,91.3z"/>
<rect class="st1" width="97.9" height="142.9"/>
</svg>
